src/app/assets/icons/language.svg

<svg width="24" height="24" viewBox="0 0 24 24" fill="none" xmlns="http://www.w3.org/2000/svg">
<path d="M11.6641 21.957C10.2974 21.957 9.00573 21.6945 7.78906 21.1695C6.5724 20.6445 5.5099 19.9279 4.60156 19.0195C3.69323 18.1112 2.97656 17.0487 2.45156 15.832C1.92656 14.6154 1.66406 13.3237 1.66406 11.957C1.66406 10.5737 1.92656 9.27786 2.45156 8.06953C2.97656 6.8612 3.69323 5.80286 4.60156 4.89453C5.5099 3.9862 6.5724 3.26953 7.78906 2.74453C9.00573 2.21953 10.2974 1.95703 11.6641 1.95703C13.0474 1.95703 14.3432 2.21953 15.5516 2.74453C16.7599 3.26953 17.8182 3.9862 18.7266 4.89453C19.6349 5.80286 20.3516 6.8612 20.8766 8.06953C21.4016 9.27786 21.6641 10.5737 21.6641 11.957C21.6641 13.3237 21.4016 14.6154 20.8766 15.832C20.3516 17.0487 19.6349 18.1112 18.7266 19.0195C17.8182 19.9279 16.7599 20.6445 15.5516 21.1695C14.3432 21.6945 13.0474 21.957 11.6641 21.957ZM11.6641 19.907C12.0974 19.307 12.4724 18.682 12.7891 18.032C13.1057 17.382 13.3641 16.6904 13.5641 15.957H9.76406C9.96406 16.6904 10.2224 17.382 10.5391 18.032C10.8557 18.682 11.2307 19.307 11.6641 19.907ZM9.06406 19.507C8.76406 18.957 8.50156 18.3862 8.27656 17.7945C8.05156 17.2029 7.86406 16.5904 7.71406 15.957H4.76406C5.2474 16.7904 5.85156 17.5154 6.57656 18.132C7.30156 18.7487 8.13073 19.207 9.06406 19.507ZM14.2641 19.507C15.1974 19.207 16.0266 18.7487 16.7516 18.132C17.4766 17.5154 18.0807 16.7904 18.5641 15.957H15.6141C15.4641 16.5904 15.2766 17.2029 15.0516 17.7945C14.8266 18.3862 14.5641 18.957 14.2641 19.507ZM3.91406 13.957H7.31406C7.26406 13.6237 7.22656 13.2945 7.20156 12.9695C7.17656 12.6445 7.16406 12.307 7.16406 11.957C7.16406 11.607 7.17656 11.2695 7.20156 10.9445C7.22656 10.6195 7.26406 10.2904 7.31406 9.95703H3.91406C3.83073 10.2904 3.76823 10.6195 3.72656 10.9445C3.6849 11.2695 3.66406 11.607 3.66406 11.957C3.66406 12.307 3.6849 12.6445 3.72656 12.9695C3.76823 13.2945 3.83073 13.6237 3.91406 13.957ZM9.31406 13.957H14.0141C14.0641 13.6237 14.1016 13.2945 14.1266 12.9695C14.1516 12.6445 14.1641 12.307 14.1641 11.957C14.1641 11.607 14.1516 11.2695 14.1266 10.9445C14.1016 10.6195 14.0641 10.2904 14.0141 9.95703H9.31406C9.26406 10.2904 9.22656 10.6195 9.20156 10.9445C9.17656 11.2695 9.16406 11.607 9.16406 11.957C9.16406 12.307 9.17656 12.6445 9.20156 12.9695C9.22656 13.2945 9.26406 13.6237 9.31406 13.957ZM16.0141 13.957H19.4141C19.4974 13.6237 19.5599 13.2945 19.6016 12.9695C19.6432 12.6445 19.6641 12.307 19.6641 11.957C19.6641 11.607 19.6432 11.2695 19.6016 10.9445C19.5599 10.6195 19.4974 10.2904 19.4141 9.95703H16.0141C16.0641 10.2904 16.1016 10.6195 16.1266 10.9445C16.1516 11.2695 16.1641 11.607 16.1641 11.957C16.1641 12.307 16.1516 12.6445 16.1266 12.9695C16.1016 13.2945 16.0641 13.6237 16.0141 13.957ZM15.6141 7.95703H18.5641C18.0807 7.1237 17.4766 6.3987 16.7516 5.78203C16.0266 5.16536 15.1974 4.70703 14.2641 4.40703C14.5641 4.95703 14.8266 5.52786 15.0516 6.11953C15.2766 6.7112 15.4641 7.3237 15.6141 7.95703ZM9.76406 7.95703H13.5641C13.3641 7.2237 13.1057 6.53203 12.7891 5.88203C12.4724 5.23203 12.0974 4.60703 11.6641 4.00703C11.2307 4.60703 10.8557 5.23203 10.5391 5.88203C10.2224 6.53203 9.96406 7.2237 9.76406 7.95703ZM4.76406 7.95703H7.71406C7.86406 7.3237 8.05156 6.7112 8.27656 6.11953C8.50156 5.52786 8.76406 4.95703 9.06406 4.40703C8.13073 4.70703 7.30156 5.16536 6.57656 5.78203C5.85156 6.3987 5.2474 7.1237 4.76406 7.95703Z" fill="currentColor"/>
</svg>

<svg xmlns="http://www.w3.org/2000/svg" width="24" height="24" fill="none"><path fill="currentColor" d="M11.664 21.957a9.7 9.7 0 0 1-3.875-.788 10.1 10.1 0 0 1-3.187-2.15 10.1 10.1 0 0 1-2.15-3.187 9.7 9.7 0 0 1-.788-3.875q0-2.075.788-3.887a10.2 10.2 0 0 1 2.15-3.175 10.1 10.1 0 0 1 3.187-2.15 9.7 9.7 0 0 1 3.875-.788 9.65 9.65 0 0 1 3.888.788 10.2 10.2 0 0 1 3.175 2.15 10.2 10.2 0 0 1 2.15 3.175 9.65 9.65 0 0 1 .787 3.887 9.7 9.7 0 0 1-.787 3.875 10.1 10.1 0 0 1-2.15 3.188 10.2 10.2 0 0 1-3.175 2.15 9.65 9.65 0 0 1-3.888.787m0-2.05q.65-.9 1.125-1.875t.775-2.075h-3.8q.3 1.1.775 2.075t1.125 1.875m-2.6-.4q-.45-.824-.787-1.713a15 15 0 0 1-.563-1.837h-2.95a8.3 8.3 0 0 0 1.813 2.175 7.2 7.2 0 0 0 2.487 1.375m5.2 0a7.2 7.2 0 0 0 2.488-1.375 8.3 8.3 0 0 0 1.812-2.175h-2.95q-.225.95-.562 1.837a14 14 0 0 1-.788 1.713m-10.35-5.55h3.4a13 13 0 0 1-.15-2 13 13 0 0 1 .15-2h-3.4a8 8 0 0 0-.25 2 8 8 0 0 0 .25 2m5.4 0h4.7q.075-.5.113-.988.037-.486.037-1.012a13 13 0 0 0-.15-2h-4.7q-.075.5-.112.987-.038.488-.038 1.013a13 13 0 0 0 .15 2m6.7 0h3.4a8 8 0 0 0 .25-2 8 8 0 0 0-.25-2h-3.4q.075.5.113.987.037.488.037 1.013a13 13 0 0 1-.15 2m-.4-6h2.95a8.3 8.3 0 0 0-1.812-2.175 7.2 7.2 0 0 0-2.488-1.375q.45.824.788 1.713.337.887.562 1.837m-5.85 0h3.8q-.3-1.1-.775-2.075a12.7 12.7 0 0 0-1.125-1.875q-.65.9-1.125 1.875t-.775 2.075m-5 0h2.95q.225-.95.563-1.837.337-.888.787-1.713-1.4.45-2.487 1.375a8.3 8.3 0 0 0-1.813 2.175"/></svg>
